dhis-2/dhis-support/dhis-support-system/src/main/resources/SVGs/male_sex_worker_negative.svg

<?xml version="1.0" encoding="UTF-8" standalone="no"?>
<!-- Created with Inkscape (http://www.inkscape.org/) -->
<svg id="svg8" xmlns:rdf="http://www.w3.org/1999/02/22-rdf-syntax-ns#" xmlns="http://www.w3.org/2000/svg" xmlns:osb="http://www.openswatchbook.org/uri/2009/osb" height="48" width="48" version="1.1" xmlns:cc="http://creativecommons.org/ns#" viewBox="0 0 12.7 12.7" xmlns:dc="http://purl.org/dc/elements/1.1/">
 <title id="title4753">UIO-icon</title>
 <metadata id="metadata5">
  <rdf:RDF>
   <cc:Work rdf:about="">
    <dc:format>image/svg+xml</dc:format>
    <dc:type rdf:resource="http://purl.org/dc/dcmitype/StillImage"/>
    <dc:title>UIO-icon</dc:title>
    <dc:creator>
     <cc:Agent>
      <dc:title>Joaquín Urbano</dc:title>
     </cc:Agent>
    </dc:creator>
    <dc:rights>
     <cc:Agent>
      <dc:title>GPL</dc:title>
     </cc:Agent>
    </dc:rights>
   </cc:Work>
  </rdf:RDF>
 </metadata>
 <g id="layer1" fill="#333" transform="translate(0,-284.3)">
  <path id="rect2027" d="m0 0v48h48v-48zm12.051 4.0664c1.8746 0.0002846 3.3942 1.5199 3.3945 3.3945-0.00028441 1.8746-1.5199 3.3942-3.3945 3.3945-1.875 0-3.3945-1.5194-3.3948-3.3941 0.0003-1.8746 1.5198-3.3942 3.3948-3.3945zm22.699 0.0996c1.875 0.0003 3.395 1.5211 3.395 3.3965-0.001 1.8746-1.52 3.3945-3.395 3.3945s-3.394-1.5199-3.395-3.3945c0-1.8754 1.52-3.3962 3.395-3.3965zm-22.992 8.189c1.9516 0.00025852 3.4934 1.6382 3.4844 3.5898l-0.013672 4.2656c1e-8 0.056753-0.001403 0.11664-0.001953 0.17383l2.586 1.683c0.27575 0.17949 0.48233 0.41818 0.64453 0.67969l1.5312-3.375 2.166 1.8125c-0.90173 0.67201-1.8172 1.3199-2.5781 2.2168l2.916-1.5645 0.62305 2.7539c-1.6065-0.017394-3.2074-0.088046-4.8906 0.7207-0.43792 0.48727-1.0488 0.74839-1.6777 0.72266-0.30639-0.021022-0.58203-0.11499-0.85547-0.21289-0.080829-0.039556-0.15898-0.082507-0.23633-0.13281l-0.396-0.26c-0.16118 1.1679-0.1233 3.1197 0.42773 4.6211 0.047059 0.12822 0.04798 0.27001 0.10352 0.39062l1.113 4.917c0.50017 1.4327-0.11257 3.8966-0.59961 6.9492-0.35426 1.4975-0.82416 1.6992-1.9746 1.6992-1.425-0.208-1.478-1.645-1.27-3.069l0.59961-4.0938-1.6113-5.9824-0.82422 6.7734c-0.041404 0.1832-0.10228 0.35572-0.17773 0.51953-0.043897 0.19068-0.10754 0.38044-0.19727 0.56445l-1.9039 3.902c-0.6319 1.294-2.1805 1.827-3.4746 1.195s-0.5907-1.606 0.041-2.9l2.0567-3.854c0.46878-2.1075 0.47647-4.6628 0.625-7.0273-0.014848-1.6562 1.076-3.5432 0.6875-11.439l-0.0156-2.588c-0.011439-1.9517 1.1421-3.6521 3.0938-3.6523zm22.992 0.118c1.2237-0.004636 2.4205 0.095928 3.668 0.66016l0.001953 0.001953c0.49819 0.26157 0.98138 0.48638 1.5 0.89844 1.2553 0.88969 2.566 6.5631 2.877 13.156-0.11459 1.3544-2.0093 1.2668-2.0469 0.078125-0.3174-5.0948-1.269-9.2368-2.4316-10.602-0.046553-0.054316-0.10209-0.14665-0.14844-0.21094 0.037213 0.13826 0.046756 0.18796 0.048828 0.18945 0.33579 2.842 0.7634 5.6106 0.9082 8.6055-3.0197 0.059172-6.0746 0.17364-8.8398 0l0.8457-8.3613c-0.001409-0.034292 0.003471-0.090364-0.005859-0.14258-1.1372 1.4303-2.0646 5.5082-2.377 10.521-0.03756 1.1887-1.9323 1.2763-2.0469-0.078125 0.31095-6.5932 1.6216-12.267 2.877-13.156 0.32022-0.2447 0.63407-0.44003 0.94531-0.61523 0.000265 0.001525 0.002158 0.002698 0.003906 0.003906 0.15841-0.084363 0.28434-0.15881 0.50977-0.27148l0.005859-0.001953 0.007813-0.003906c1.2582-0.57631 2.4639-0.67656 3.6973-0.67188zm-22.973 1.3145c-1.1806 0.00000413-2.1328 0.95028-2.1328 2.1309v3.5391c0.045664 1.0676-0.055806 1.7984 1.1387 2.6465l1.0859 0.70703c0.06763 0.054176 0.1383 0.10571 0.21289 0.1543l2.9844 1.9434 0.2793 0.18164c1.0034 0.65312 2.2303 0.53397 2.752-0.26758 0.52171-0.80146 0.13426-1.9719-0.86914-2.625l-1.084-0.705c-0.068275-0.054603-0.13756-0.10919-0.21289-0.1582l-0.713-0.463-1.3301-0.86719 0.017578-0.54688v-3.5391c-2e-8 -1.1806-0.94834-2.1309-2.1289-2.1309zm25.271 4.5273c-0.18525 0.013358-0.32859 0.16778-0.32812 0.35352 0.00002085 0.19523 0.15828 0.35349 0.35352 0.35352 0.19523-0.00002085 0.35349-0.15828 0.35352-0.35352-0.00002085-0.19523-0.15828-0.35349-0.35352-0.35352-0.008461-0.00030398-0.01693-0.00030398-0.025391 0zm-5.0312 0.03125c-0.18525 0.013358-0.32859 0.16778-0.32812 0.35352 0.00002085 0.19523 0.15828 0.35349 0.35352 0.35352 0.19523-0.00002085 0.35349-0.15828 0.35352-0.35352-0.00002086-0.19523-0.15828-0.35349-0.35352-0.35352-0.008461-0.00030398-0.01693-0.00030398-0.025391 0zm-12.262 1.834-0.11328 0.13672 0.18164 0.1543c-0.075214 0.11038-0.10752 0.22101-0.097656 0.33398 0.00986 0.11297 0.0621 0.21034 0.1582 0.29102 0.055729 0.046783 0.1128 0.077498 0.16797 0.09375 0.05565 0.015726 0.1111 0.020211 0.16797 0.013672 0.05678-0.007589 0.11671-0.023468 0.17773-0.048828 0.060458-0.025829 0.12778-0.059152 0.20312-0.10156 0.075348-0.042395 0.13815-0.06616 0.1875-0.068359 0.049255-0.003247 0.095948 0.015543 0.14258 0.054688 0.044924 0.037712 0.069885 0.081373 0.072266 0.13281 0.001812 0.050963-0.018538 0.1023-0.060547 0.15234-0.050601 0.060265-0.10884 0.091411-0.17188 0.09375-0.063127 0.001293-0.12764-0.027178-0.19531-0.083984l-0.20703 0.24805c0.11658 0.09786 0.23735 0.14317 0.36133 0.13867 0.12389-0.005541 0.24119-0.059943 0.35156-0.16602l0.168 0.14 0.113-0.134-0.168-0.143c0.078-0.115 0.112-0.229 0.102-0.34-0.009677-0.11088-0.063484-0.20596-0.16016-0.28711-0.051748-0.043442-0.10226-0.07329-0.1543-0.089844-0.052604-0.017043-0.10667-0.024369-0.16211-0.019531-0.056008 0.004362-0.11514 0.019233-0.17578 0.042969-0.06121 0.023267-0.13417 0.058192-0.21875 0.10352-0.084103 0.044761-0.1501 0.06725-0.19727 0.070312-0.047163 0.003061-0.091547-0.012545-0.13477-0.048828-0.04663-0.039145-0.073448-0.083309-0.078125-0.13086-0.005245-0.048026 0.011637-0.093993 0.050781-0.14062 0.039622-0.04718 0.088974-0.07109 0.14648-0.070312 0.057419-0.0002683 0.12121 0.028655 0.18945 0.085938l0.20703-0.24609c-0.11089-0.093086-0.22664-0.14121-0.34375-0.14258-0.11768-0.001852-0.22551 0.042142-0.32422 0.13086zm2.084 2.1777-0.17383 0.035156 0.046875 0.23438c-0.12765 0.03933-0.22237 0.10478-0.28516 0.19922-0.062785 0.094435-0.083356 0.20316-0.058594 0.32617 0.014359 0.071327 0.039299 0.1306 0.072266 0.17773 0.033695 0.046991 0.074521 0.0868 0.12305 0.11719 0.049108 0.029492 0.10446 0.052057 0.16797 0.070312 0.063362 0.017533 0.13926 0.034957 0.22461 0.048828 0.085345 0.013871 0.14757 0.035388 0.1875 0.064453 0.040515 0.028195 0.06611 0.071173 0.078125 0.13086 0.011575 0.057502 0.002891 0.10676-0.027344 0.14844-0.030381 0.040955-0.078526 0.069143-0.14258 0.082031-0.077154 0.015587-0.14069 0.00429-0.19141-0.033203-0.050138-0.038377-0.084126-0.10088-0.10156-0.1875l-0.31445 0.0625c0.030038 0.14921 0.09367 0.26014 0.19336 0.33398 0.10027 0.072986 0.22647 0.10387 0.37891 0.089844l0.044922 0.21484 0.17188-0.033203-0.042969-0.21875c0.1326-0.041083 0.22939-0.10653 0.29102-0.19922 0.061622-0.092685 0.079596-0.20243 0.054688-0.32617-0.013334-0.066236-0.034109-0.12062-0.064453-0.16602-0.03049-0.046122-0.068892-0.084431-0.11523-0.11523-0.046489-0.03154-0.10186-0.056896-0.16406-0.076172-0.062346-0.020016-0.14-0.039293-0.23438-0.056641-0.093649-0.017503-0.16045-0.039383-0.19922-0.066406-0.038766-0.027035-0.063083-0.069683-0.074219-0.125-0.012015-0.059682-0.004529-0.10836 0.021484-0.14844 0.025867-0.0408 0.067268-0.068059 0.12695-0.080078 0.060413-0.012147 0.11375 0.00059918 0.1582 0.037109 0.045038 0.035618 0.076167 0.096249 0.09375 0.18359l0.31641-0.0625c-0.028572-0.14193-0.089025-0.25007-0.17969-0.32422-0.090809-0.07488-0.20149-0.10931-0.33398-0.10156zm8.3359 3.3828 0.5 0.1543c3.3619 0.77138 2.4339 1.5931 3.2324 2.4316 0.19265 0.19514 0.31664 0.26855 0.55664 0.33594l0.013672 14.25c0.01795 1.4113-3.4555 1.6742-3.4941 0.082031 0.5869-16.448-1.3661-13.686-0.80859-17.254zm9.0469 0c0.55745 3.5684-1.3974 0.80545-0.81055 17.254-0.038614 1.5922-3.5101 1.3293-3.4922-0.082031l0.068359-14.273c0.31405-0.07494 0.34748-0.10392 0.48633-0.24609 0.34169-0.35315 0.16846-1.7929 3.2461-2.502z" fill-rule="evenodd" fill-opacity=".95707" transform="matrix(.26458 0 0 .26458 0 284.3)"/>
 </g>
</svg>

<svg width="48" height="48" viewBox="0 0 48 48" fill="none" xmlns="http://www.w3.org/2000/svg">
<path fill-rule="evenodd" clip-rule="evenodd" d="M0 0V47.9994H47.9994V0H0ZM12.0508 4.06635C13.9254 4.06663 15.445 5.58623 15.4453 7.46081C15.445 9.33538 13.9254 10.855 12.0508 10.8553C10.1759 10.8553 8.65639 9.33588 8.65609 7.46121C8.65639 5.58663 10.1759 4.06705 12.0508 4.06675V4.06635ZM34.7496 4.16595C36.6245 4.16625 38.1445 5.68703 38.1445 7.56241C38.1435 9.43698 36.6245 10.9569 34.7496 10.9569C32.8746 10.9569 31.3556 9.43698 31.3546 7.56241C31.3546 5.68703 32.8746 4.16625 34.7496 4.16595ZM11.7579 12.3548C13.7094 12.3551 15.2512 13.993 15.2422 15.9446L15.2285 20.2101C15.2285 20.2669 15.2271 20.3268 15.2266 20.384L17.8126 22.067C18.0883 22.2464 18.2949 22.4851 18.4571 22.7466L19.9883 19.3717L22.1542 21.1842C21.2525 21.8562 20.337 22.504 19.5762 23.4009L22.4921 21.8364L23.1152 24.5903C21.5087 24.5729 19.9078 24.5023 18.2246 25.311C17.7867 25.7983 17.1758 26.0594 16.5469 26.0337C16.2406 26.0126 15.9649 25.9187 15.6915 25.8208C15.6107 25.7812 15.5325 25.7383 15.4552 25.688L15.0592 25.428C14.898 26.5958 14.9359 28.5476 15.4869 30.049C15.5339 30.1772 15.5349 30.319 15.5904 30.4396L16.7034 35.3566C17.2036 36.7892 16.5908 39.2531 16.1038 42.3057C15.7495 43.8031 15.2796 44.0048 14.1292 44.0048C12.7042 43.7969 12.6512 42.3599 12.8592 40.9359L13.4588 36.8421L11.8476 30.8598L11.0233 37.6331C10.9819 37.8163 10.9211 37.9888 10.8456 38.1527C10.8017 38.3433 10.7381 38.5331 10.6484 38.7171L8.74448 42.619C8.11258 43.913 6.564 44.446 5.26992 43.814C3.97584 43.182 4.67923 42.2081 5.31092 40.9141L7.36759 37.0601C7.83637 34.9526 7.84406 32.3974 7.99258 30.0329C7.97774 28.3767 9.06857 26.4897 8.68008 18.594L8.66448 16.0061C8.65304 14.0544 9.80656 12.354 11.7582 12.3538L11.7579 12.3548ZM34.7496 12.4728C35.9732 12.4682 37.17 12.5688 38.4175 13.133L38.4195 13.1349C38.9177 13.3965 39.4008 13.6213 39.9195 14.0334C41.1747 14.9231 42.4854 20.5964 42.7964 27.1892C42.6818 28.5436 40.7871 28.456 40.7495 27.2673C40.4321 22.1726 39.4806 18.0307 38.318 16.6655C38.2714 16.6112 38.2159 16.5188 38.1695 16.4545C38.2067 16.5928 38.2163 16.6425 38.2184 16.644C38.5541 19.4859 38.9818 22.2545 39.1265 25.2494C36.1069 25.3085 33.052 25.423 30.2869 25.2494L31.1326 16.8882C31.1311 16.8539 31.136 16.7978 31.1267 16.7456C29.9895 18.1759 29.0621 22.2537 28.7497 27.2665C28.7122 28.4552 26.8174 28.5427 26.7028 27.1883C27.0138 20.5952 28.3244 14.9215 29.5798 14.0325C29.9 13.7878 30.2139 13.5925 30.5251 13.4173C30.5254 13.4188 30.5273 13.42 30.529 13.4212C30.6874 13.3368 30.8134 13.2624 31.0388 13.1497L31.0446 13.1478L31.0525 13.1439C32.3106 12.5676 33.5163 12.4673 34.7497 12.472L34.7496 12.4728ZM11.7769 13.7873C10.5963 13.7873 9.64408 14.7376 9.64408 15.9182V19.4573C9.68974 20.5248 9.58827 21.2556 10.7828 22.1037L11.8687 22.8107C11.9363 22.8649 12.0069 22.9165 12.0815 22.965L15.0659 24.9084L15.3452 25.0901C16.3486 25.7432 17.5755 25.624 18.0972 24.8225C18.6189 24.021 18.2314 22.8506 17.228 22.1975L16.144 21.4925C16.0758 21.4379 16.0065 21.3833 15.9312 21.3343L15.2182 20.8713L13.8881 20.0041L13.9057 19.4573V15.9182C13.9057 14.7376 12.9573 13.7873 11.7768 13.7873H11.7769ZM37.0475 18.3146C36.8623 18.3279 36.719 18.4823 36.7194 18.6681C36.7194 18.8633 36.8777 19.0216 37.0729 19.0216C37.2682 19.0216 37.4264 18.8633 37.4265 18.6681C37.4264 18.4729 37.2682 18.3146 37.0729 18.3146C37.0645 18.3143 37.056 18.3143 37.0475 18.3146ZM32.0164 18.3458C31.8312 18.3592 31.6878 18.5136 31.6883 18.6993C31.6883 18.8946 31.8466 19.0528 32.0418 19.0529C32.237 19.0528 32.3953 18.8946 32.3953 18.6993C32.3953 18.5041 32.237 18.3458 32.0418 18.3458C32.0333 18.3455 32.0249 18.3455 32.0164 18.3458ZM19.7546 20.1798L19.6413 20.3165L19.8229 20.4708C19.7477 20.5812 19.7154 20.6918 19.7253 20.8048C19.7351 20.9178 19.7874 21.0151 19.8835 21.0958C19.9392 21.1426 19.9963 21.1733 20.0514 21.1896C20.1071 21.2053 20.1625 21.2098 20.2194 21.2032C20.2762 21.1956 20.3361 21.1798 20.3971 21.1544C20.4576 21.1286 20.5249 21.0952 20.6002 21.0528C20.6756 21.0104 20.7384 20.9867 20.7877 20.9845C20.837 20.9812 20.8837 21 20.9303 21.0392C20.9752 21.0769 21.0002 21.1205 21.0026 21.172C21.0044 21.2229 20.984 21.2743 20.942 21.3243C20.8914 21.3846 20.8332 21.4157 20.7702 21.4181C20.707 21.4194 20.6425 21.3909 20.5748 21.3341L20.3678 21.5821C20.4844 21.68 20.6052 21.7253 20.7291 21.7208C20.853 21.7153 20.9703 21.6609 21.0807 21.5548L21.2487 21.6948L21.3617 21.5608L21.1937 21.4178C21.2717 21.3028 21.3057 21.1888 21.2957 21.0778C21.286 20.9669 21.2322 20.8718 21.1355 20.7907C21.0838 20.7472 21.0333 20.7174 20.9812 20.7008C20.9286 20.6838 20.8746 20.6765 20.8191 20.6813C20.7631 20.6857 20.704 20.7005 20.6434 20.7243C20.5821 20.7475 20.5092 20.7825 20.4246 20.8278C20.3405 20.8726 20.2745 20.895 20.2273 20.8981C20.1802 20.9012 20.1358 20.8856 20.0926 20.8493C20.0459 20.8101 20.0191 20.766 20.0144 20.7184C20.0092 20.6704 20.0261 20.6244 20.0652 20.5778C20.1048 20.5306 20.1542 20.5067 20.2117 20.5075C20.2691 20.5072 20.3329 20.5361 20.4012 20.5934L20.6082 20.3473C20.4973 20.2543 20.3815 20.2061 20.2644 20.2048C20.1468 20.2029 20.0389 20.2469 19.9402 20.3356L19.7546 20.1798ZM21.8385 22.3575L21.6647 22.3926L21.7116 22.627C21.5839 22.6663 21.4892 22.7318 21.4264 22.8262C21.3636 22.9207 21.3431 23.0294 21.3678 23.1524C21.3822 23.2237 21.4071 23.283 21.4401 23.3301C21.4738 23.3771 21.5146 23.4169 21.5631 23.4473C21.6122 23.4768 21.6676 23.4994 21.7311 23.5176C21.7945 23.5351 21.8704 23.5526 21.9557 23.5664C22.0411 23.5803 22.1033 23.6018 22.1432 23.6309C22.1837 23.6591 22.2093 23.7021 22.2213 23.7618C22.2329 23.8193 22.2242 23.8685 22.194 23.9102C22.1636 23.9511 22.1155 23.9793 22.0514 23.9922C21.9743 24.0078 21.9107 23.9965 21.86 23.959C21.8099 23.9206 21.7759 23.8581 21.7584 23.7715L21.444 23.834C21.474 23.9832 21.5377 24.0942 21.6374 24.168C21.7376 24.241 21.8638 24.2719 22.0163 24.2578L22.0612 24.4727L22.2331 24.4395L22.1901 24.2207C22.3227 24.1796 22.4195 24.1142 22.4811 24.0215C22.5427 23.9288 22.5607 23.8191 22.5358 23.6953C22.5225 23.6291 22.5017 23.5747 22.4713 23.5293C22.4409 23.4832 22.4025 23.4449 22.3561 23.4141C22.3096 23.3826 22.2543 23.3572 22.1921 23.3379C22.1297 23.3179 22.0521 23.2986 21.9577 23.2813C21.864 23.2638 21.7972 23.2419 21.7585 23.2149C21.7197 23.1878 21.6954 23.1452 21.6842 23.0899C21.6722 23.0302 21.6797 22.9815 21.7057 22.9414C21.7316 22.9006 21.773 22.8734 21.8327 22.8614C21.8931 22.8492 21.9464 22.862 21.9909 22.8985C22.0359 22.9341 22.067 22.9947 22.0846 23.0821L22.401 23.0196C22.3725 22.8776 22.312 22.7695 22.2213 22.6953C22.1305 22.6205 22.0199 22.586 21.8874 22.5938L21.8385 22.3575ZM30.1743 25.7402L30.6743 25.8945C34.0362 26.6659 33.1082 27.4876 33.9067 28.3261C34.0993 28.5212 34.2233 28.5946 34.4633 28.662L34.477 42.9119C34.4949 44.3231 31.0215 44.586 30.9829 42.9939C31.5698 26.5461 29.6168 29.3081 30.1743 25.7401V25.7402ZM39.2211 25.7402C39.7786 29.3086 37.8237 26.5457 38.4106 42.994C38.372 44.5862 34.9005 44.3233 34.9184 42.912L34.9868 28.6392C35.3008 28.5642 35.3342 28.5352 35.4731 28.3931C35.8148 28.0399 35.6416 26.6002 38.7192 25.8911L39.2211 25.7402Z" fill="#333333"/>
</svg>
